assets/icons/meter/6-filled.svg

<?xml version="1.0" encoding="UTF-8" standalone="no"?>
<svg
   viewBox="0 0 24 24"
   width="24"
   height="24"
   version="1.1"
   id="svg8"
   sodipodi:docname="7-filled.svg"
   inkscape:version="1.2 (1:1.2.1+202207142221+cd75a1ee6d)"
   xmlns:inkscape="http://www.inkscape.org/namespaces/inkscape"
   xmlns:sodipodi="http://sodipodi.sourceforge.net/DTD/sodipodi-0.dtd"
   xmlns="http://www.w3.org/2000/svg"
   xmlns:svg="http://www.w3.org/2000/svg"
   xmlns:rdf="http://www.w3.org/1999/02/22-rdf-syntax-ns#"
   xmlns:cc="http://creativecommons.org/ns#"
   xmlns:dc="http://purl.org/dc/elements/1.1/">
  <defs
     id="defs2" />
  <sodipodi:namedview
     id="base"
     pagecolor="#ffffff"
     bordercolor="#666666"
     borderopacity="1.0"
     inkscape:pageopacity="0.0"
     inkscape:pageshadow="2"
     inkscape:zoom="32"
     inkscape:cx="6.84375"
     inkscape:cy="12.125"
     inkscape:document-units="px"
     inkscape:current-layer="layer1"
     inkscape:document-rotation="0"
     showgrid="true"
     units="px"
     inkscape:snap-center="true"
     inkscape:window-width="1920"
     inkscape:window-height="1043"
     inkscape:window-x="0"
     inkscape:window-y="0"
     inkscape:window-maximized="1"
     inkscape:pagecheckerboard="0"
     inkscape:showpageshadow="2"
     inkscape:deskcolor="#d1d1d1">
    <inkscape:grid
       type="xygrid"
       id="grid833" />
    <inkscape:grid
       type="xygrid"
       id="grid846"
       dotted="true"
       spacingx="0.5"
       spacingy="0.5"
       empspacing="10" />
  </sodipodi:namedview>
  <metadata
     id="metadata5">
    <rdf:RDF>
      <cc:Work
         rdf:about="">
        <dc:format>image/svg+xml</dc:format>
        <dc:type
           rdf:resource="http://purl.org/dc/dcmitype/StillImage" />
      </cc:Work>
    </rdf:RDF>
  </metadata>
  <g
     inkscape:label="Calque 1"
     inkscape:groupmode="layer"
     id="layer1">
    <path
       id="path2747"
       style="color:#000000;fill:#808080;fill-rule:evenodd;stroke-linecap:round;stroke-linejoin:round"
       d="M 11 3 C 9.6340084 3.0710799 8.3456812 3.4356042 7.1914062 4.0253906 L 8.1835938 5.7421875 L 7.3164062 6.2421875 L 6.3261719 4.5253906 C 5.2137753 5.2504224 4.2621401 6.2020557 3.5371094 7.3144531 L 5.2539062 8.3046875 L 4.7539062 9.171875 L 3.0371094 8.1796875 C 2.4473229 9.3339613 2.0828014 10.622293 2.0117188 11.988281 L 4 11.988281 L 4 12.988281 L 2.0175781 12.988281 C 2.0886761 14.354065 2.4479986 15.643335 3.0371094 16.796875 L 4.7539062 15.804688 L 5.2539062 16.671875 L 3.5390625 17.662109 C 4.4381955 19.041211 5.6822244 20.175271 7.1542969 20.933594 A 0.50005 0.50005 0 0 0 7.3847656 20.988281 L 15.617188 20.988281 A 0.50005 0.50005 0 0 0 15.845703 20.933594 C 17.317376 20.175112 18.561707 19.04126 19.460938 17.662109 L 17.746094 16.671875 L 18.246094 15.804688 L 19.962891 16.796875 C 20.552214 15.643236 20.911289 14.354002 20.982422 12.988281 L 19 12.988281 L 19 11.988281 L 20.988281 11.988281 C 20.917201 10.622293 20.552675 9.3339613 19.962891 8.1796875 L 18.246094 9.171875 L 17.746094 8.3046875 L 19.462891 7.3144531 C 18.737855 6.2020567 17.786225 5.2504224 16.673828 4.5253906 L 15.683594 6.2421875 L 14.816406 5.7421875 L 15.808594 4.0253906 C 14.654318 3.4356042 13.365994 3.0710834 12 3 L 12 4.9882812 L 11 4.9882812 L 11 3 z M 16.455078 6.8535156 L 17.162109 7.5605469 L 12.859375 11.863281 A 1.5 1.5 0 0 1 12.566406 13.570312 A 1.5 1.5 0 0 1 12.304688 13.779297 A 1.5 1.5 0 0 1 10.445312 13.572266 A 1.5 1.5 0 0 1 10.445312 11.449219 A 1.5 1.5 0 0 1 12.152344 11.15625 L 16.455078 6.8535156 z " />
    <g
       id="layer9"
       label="status"
       style="display:inline;stroke-width:0.8"
       transform="matrix(0.33072916,0,0,0.33072916,-294.81205,62.363802)" />
    <g
       id="layer2"
       style="display:inline;stroke-width:0.8"
       transform="matrix(0.33072916,0,0,0.33072916,-215.10626,-59.0138)" />
    <g
       id="layer4"
       style="display:inline;stroke-width:0.8"
       transform="matrix(0.33072916,0,0,0.33072916,-215.10626,-59.0138)" />
    <g
       id="g1812"
       style="display:inline;stroke-width:0.8"
       transform="matrix(0.33072916,0,0,0.33072916,-215.10626,-59.0138)" />
    <g
       id="g6217"
       style="display:inline;stroke-width:0.8"
       transform="matrix(0.33072916,0,0,0.33072916,-215.10626,-59.0138)" />
    <g
       id="layer3"
       style="display:inline;stroke-width:0.8"
       transform="matrix(0.33072916,0,0,0.33072916,-215.10626,-59.0138)" />
    <g
       id="layer1-6"
       style="display:inline;stroke-width:0.8"
       transform="matrix(0.33072916,0,0,0.33072916,-215.10626,-59.0138)" />
  </g>
</svg>

<svg width="24" height="24" xmlns="http://www.w3.org/2000/svg"><path style="color:#000;fill:gray;stroke-linecap:round;stroke-linejoin:round" d="M11 3a9.43 9.43 0 0 0-3.809 1.025l.993 1.717-.868.5-.99-1.717a9.57 9.57 0 0 0-2.789 2.79l1.717.99-.5.867-1.717-.992a9.43 9.43 0 0 0-1.025 3.808H4v1H2.018a9.434 9.434 0 0 0 1.02 3.809l1.716-.992.5.867-1.715.99a9.54 9.54 0 0 0 3.615 3.272.5.5 0 0 0 .23.054h8.233a.5.5 0 0 0 .229-.054 9.544 9.544 0 0 0 3.615-3.272l-1.715-.99.5-.867 1.717.992a9.432 9.432 0 0 0 1.02-3.809H19v-1h1.988a9.43 9.43 0 0 0-1.025-3.808l-1.717.992-.5-.867 1.717-.99a9.57 9.57 0 0 0-2.79-2.79l-.99 1.717-.867-.5.993-1.717A9.43 9.43 0 0 0 12 3v1.988h-1V3zm5.455 3.854.707.707-4.303 4.302a1.5 1.5 0 0 1-.293 1.707 1.5 1.5 0 0 1-.261.21 1.5 1.5 0 0 1-1.86-.208 1.5 1.5 0 0 1 0-2.123 1.5 1.5 0 0 1 1.707-.293l4.303-4.302z"/></svg>
